img/real-estate/locations/usa.svg

<svg xmlns="http://www.w3.org/2000/svg" width="80" height="80" fill="none" xmlns:v="https://vecta.io/nano"><path fill="#fdbc31" fill-opacity=".1" d="M0 0h80v80H0z"/><g clip-path="url(#A)" fill="#fdbc31"><path d="M62.1378 40.668C63.9834 38.822 65 36.3684 65 33.7588c0-.7019-.2731-1.3615-.7694-1.8578s-1.1559-.7694-1.8574-.7694h-3.9169c-.7019 0-1.3615.2731-1.8578.7694l-7.2666 7.2666c-.1274.1278-.2968.198-.4768.198h-.002c-.1808-.0007-.3501-.0717-.4772-.1999l-3.3863-3.4237c-.4905-.4951-1.1715-.7793-1.8673-.7793h-4.4445l2.797-3.9051c.8819-1.5282 1.3107-2.9793 1.3107-4.4369 0-4.5769-3.7235-8.3004-8.3008-8.3004-3.6129 0-6.8764 2.4101-7.9357 5.8609-.626 2.0386-.4276 4.3015.5444 6.2096.3616.7099.8293 1.3351 1.2813 1.9394l.938 1.2817-10.968-3.1189c-.7995-.2266-1.6388-.0694-2.3018.4318S15 32.1894 15 33.0202v7.7061c0 1.5595.2316 3.1124.6889 4.6154.1278.4212.515.6924.9339.6924.0938 0 .1896-.0134.2845-.0424.5158-.1567.8072-.7022.6501-1.2184-.401-1.3183-.6043-2.6802-.6043-4.047v-7.7061c0-.2918.1675-.4619.2674-.5374.1702-.1286.3857-.169.5906-.1111l13.3602 3.7995 2.5238 3.474c.1838.2526.4772.4021.7896.4021h.0004c.3128-.0004.6061-.1503.7896-.4032l1.9802-2.7283h5.867c.1786 0 .3537.0733.4796.2003l3.3859 3.4229c.4955.5009 1.1562.7775 1.8604.7794h.0073c.7015 0 1.361-.2732 1.8577-.7698l7.2666-7.2667c.1255-.1251.2991-.1972.4765-.1972h3.9169c.1801 0 .3494.0702.4765.1976s.1976.296.1976.4761c0 2.0882-.8133 4.0516-2.2904 5.5283l-3.6934 3.6945c-1.0242 1.0242-1.0242 2.6905 0 3.7151l1.0392 1.0391c.2628.2625.2624.6909 0 .9537l-2.3789 2.3781c-.4963.4959-.7694 1.1559-.7694 1.8578s.2731 1.3618.7694 1.8581l3.8475 3.8467c.1332.1328.2007.2892.2007.4647 0 .2845-.2102.6855-.6771.6855-.1797 0-.3491-.0702-.4765-.1973l-3.9127-3.9119c-.4963-.4963-1.1559-.7694-1.8578-.7694h-4.3884c-.7019 0-1.3615.2731-1.8578.7694l-1.1699 1.1696c-.1252.1255-.2987.1976-.4761.1976h-1.2432c-.7019 0-1.3615.2731-1.8578.7694l-1.8974 1.8974c-.2628.2629-.6901.2629-.9529 0l-1.994-1.9932c-.4898-.4894-1.1665-.7701-1.8577-.7701h-1.5282c-.1774 0-.3509-.0721-.4764-.1976l-3.0117-3.0118c-.4963-.4962-1.1559-.7694-1.8574-.7694h-4.5552c-.177 0-.3509-.0717-.4764-.1972l-1.0986-1.0986c-.3811-.3815-.9995-.3815-1.381 0s-.3814.9994 0 1.3809l1.0987 1.0986c.4963.4963 1.1558.7694 1.8573.7694h4.5548c.1774 0 .351.0721.4765.1976l3.0117 3.0118c.4962.4962 1.1558.7694 1.8577.7694h1.5282c.1766 0 .3502.0721.4764.1983l1.994 1.9932c.5123.512 1.1848.7679 1.8577.7679s1.3455-.2559 1.8574-.7679l1.8974-1.8974c.1255-.1255.2991-.1976.4765-.1976h1.2432c.7019 0 1.3615-.2731 1.8578-.7694l1.1696-1.1696c.1255-.1255.2994-.1976.4764-.1976h4.3888c.1774 0 .351.0721.4765.1976l3.9131 3.912c.4963.4962 1.1558.7694 1.8574.7694 1.4503 0 2.6298-1.1837 2.6298-2.6387 0-.6923-.2743-1.3477-.7725-1.8459l-3.8475-3.8467c-.1274-.1271-.1972-.2964-.1972-.4769s.0702-.3498.1972-.4768l2.3796-2.3785c1.0235-1.025 1.0231-2.6916-.0007-3.7155l-1.0391-1.0391c-.2625-.2628-.2625-.6901 0-.9529l3.6937-3.6945zm-27.6535-3.2593l-5.6507-7.9045c-.7438-1.4602-.8961-3.1913-.4177-4.7493.8103-2.6386 3.3058-4.4815 6.0688-4.4815 3.5 0 6.3477 2.8477 6.3477 6.3477 0 1.1204-.3334 2.2201-1.0491 3.4603-.5531.9583-5.299 7.3273-5.299 7.3273h0zm4.1856-10.9915c0-2.3064-1.876-4.1828-4.1824-4.1828s-4.1828 1.8764-4.1828 4.1828 1.8764 4.1824 4.1828 4.1824 4.1824-1.876 4.1824-4.1824zm-4.1824 2.2293c-1.2295 0-2.2297-1.0002-2.2297-2.2293s1.0002-2.2297 2.2297-2.2297 2.2293 1.0002 2.2293 2.2297-.9998 2.2293-2.2293 2.2293zm-2.684 18.7253h.0057c.2625 0 .5139-.1057.6977-.2934l1.458-1.4889c.3773-.3852.3708-1.0036-.0149-1.3809s-1.0036-.3708-1.3809.0145l-.7523.7683-.7286-.7606c-.373-.3895-.9914-.4029-1.3809-.0298s-.4028.9911-.0297 1.3805l1.4263 1.4893c.1827.1911.4352.2994.6996.301zm10.9727 5.8597h.0053c.2624 0 .5142-.106.6981-.2933l1.458-1.4893c.3772-.3853.3708-1.0036-.0149-1.3809s-1.0033-.3708-1.3809.0145l-.7523.7687-.729-.7611c-.3731-.3895-.991-.4028-1.3805-.0297s-.4029.9914-.0298 1.3809l1.426 1.4889c.1831.1911.4356.2998.7.3013h0zm7.1244-3.772c.1827.1911.4353.2998.7.3009h.0054c.2624 0 .5138-.1056.6977-.2933l1.4579-1.4889c.3773-.3857.3708-1.0036-.0145-1.3809s-1.0036-.3708-1.3809.0145l-.7526.7683-.7286-.7607c-.3731-.3895-.9915-.4028-1.3809-.0297s-.4029.991-.0298 1.3805l1.4263 1.4893zm-30.5047-.8352c-.2045-.491-.7832-.7321-1.2753-.5284s-.7324.784-.5283 1.2757.7835.7324 1.2753.5279.7331-.7839.5283-1.2752h0z"/></g><defs><clipPath id="A"><path fill="#fff" transform="translate(15 15)" d="M0 0h50v50H0z"/></clipPath></defs></svg>

<svg width="80" height="80" viewBox="0 0 80 80" fill="none" xmlns="http://www.w3.org/2000/svg">
<g clip-path="url(#clip0_125_2678)">
<path d="M0 0H80V80H0V0Z" fill="#A237EE" fill-opacity="0.1"/>
<mask id="mask0_125_2678" style="mask-type:luminance" maskUnits="userSpaceOnUse" x="15" y="15" width="50" height="50">
<path d="M15 15H65V65H15V15Z" fill="white"/>
</mask>
<g mask="url(#mask0_125_2678)">
<path d="M62.1378 40.668C63.9834 38.822 65 36.3684 65 33.7588C65 33.0569 64.7269 32.3973 64.2306 31.901C63.7343 31.4047 63.0747 31.1316 62.3732 31.1316H58.4563C57.7544 31.1316 57.0948 31.4047 56.5985 31.901L49.3319 39.1676C49.2045 39.2954 49.0351 39.3656 48.8551 39.3656H48.8531C48.6723 39.3649 48.503 39.2939 48.3759 39.1657L44.9896 35.742C44.4991 35.2469 43.8181 34.9627 43.1223 34.9627H38.6778L41.4748 31.0576C42.3567 29.5294 42.7855 28.0783 42.7855 26.6207C42.7855 22.0438 39.062 18.3203 34.4847 18.3203C30.8718 18.3203 27.6083 20.7304 26.549 24.1812C25.923 26.2198 26.1214 28.4827 27.0934 30.3908C27.455 31.1007 27.9227 31.7259 28.3747 32.3302L29.3127 33.6119L18.3447 30.493C17.5452 30.2664 16.7059 30.4236 16.0429 30.9248C15.3799 31.426 15 32.1894 15 33.0202V40.7263C15 42.2858 15.2316 43.8387 15.6889 45.3417C15.8167 45.7629 16.2039 46.0341 16.6228 46.0341C16.7166 46.0341 16.8124 46.0207 16.9073 45.9917C17.4231 45.835 17.7145 45.2895 17.5574 44.7733C17.1564 43.455 16.9531 42.0931 16.9531 40.7263V33.0202C16.9531 32.7284 17.1206 32.5583 17.2205 32.4828C17.3907 32.3542 17.6062 32.3138 17.8111 32.3717L31.1713 36.1712L33.6951 39.6452C33.8789 39.8978 34.1723 40.0473 34.4847 40.0473C34.7975 40.0469 35.0912 39.897 35.2747 39.6441L37.2549 36.9158H43.1219C43.3005 36.9158 43.4756 36.9891 43.6015 37.1161L46.9874 40.539C47.4829 41.0399 48.1436 41.3165 48.8478 41.3184H48.8551C49.5566 41.3184 50.2161 41.0452 50.7128 40.5486L57.9794 33.2819C58.1049 33.1568 58.2785 33.0847 58.4559 33.0847H62.3728C62.5529 33.0847 62.7222 33.1549 62.8493 33.2823C62.9764 33.4097 63.0469 33.5783 63.0469 33.7584C63.0469 35.8466 62.2336 37.81 60.7565 39.2867L57.0631 42.9812C56.0389 44.0054 56.0389 45.6717 57.0631 46.6963L58.1023 47.7354C58.3651 47.9979 58.3647 48.4263 58.1023 48.6891L55.7234 51.0672C55.2271 51.5631 54.954 52.2231 54.954 52.925C54.954 53.6269 55.2271 54.2868 55.7234 54.7831L59.5709 58.6298C59.7041 58.7626 59.7716 58.919 59.7716 59.0945C59.7716 59.379 59.5614 59.78 59.0945 59.78C58.9148 59.78 58.7454 59.7098 58.618 59.5827L54.7053 55.6708C54.209 55.1745 53.5494 54.9014 52.8475 54.9014H48.4591C47.7572 54.9014 47.0976 55.1745 46.6013 55.6708L45.4314 56.8404C45.3062 56.9659 45.1327 57.038 44.9553 57.038H43.7121C43.0102 57.038 42.3506 57.3111 41.8543 57.8074L39.9569 59.7048C39.6941 59.9677 39.2668 59.9677 39.004 59.7048L37.01 57.7116C36.5202 57.2222 35.8435 56.9415 35.1523 56.9415H33.6241C33.4467 56.9415 33.2732 56.8694 33.1477 56.7439L30.136 53.7321C29.6397 53.2359 28.9801 52.9627 28.2786 52.9627H23.7234C23.5464 52.9627 23.3725 52.891 23.247 52.7655L22.1484 51.6669C21.7673 51.2854 21.1489 51.2854 20.7674 51.6669C20.3859 52.0484 20.386 52.6663 20.7674 53.0478L21.8661 54.1464C22.3624 54.6427 23.0219 54.9158 23.7234 54.9158H28.2782C28.4556 54.9158 28.6292 54.9879 28.7547 55.1134L31.7664 58.1252C32.2626 58.6214 32.9222 58.8946 33.6241 58.8946H35.1523C35.3289 58.8946 35.5025 58.9667 35.6287 59.0929L37.6227 61.0861C38.135 61.5981 38.8075 61.854 39.4804 61.854C40.1533 61.854 40.8259 61.5981 41.3378 61.0861L43.2352 59.1887C43.3607 59.0632 43.5343 58.9911 43.7117 58.9911H44.9549C45.6568 58.9911 46.3164 58.718 46.8127 58.2217L47.9823 57.0521C48.1078 56.9266 48.2817 56.8545 48.4587 56.8545H52.8475C53.0249 56.8545 53.1985 56.9266 53.324 57.0521L57.2371 60.9641C57.7334 61.4603 58.3929 61.7335 59.0945 61.7335C60.5448 61.7335 61.7243 60.5498 61.7243 59.0948C61.7243 58.4025 61.45 57.7471 60.9518 57.2489L57.1043 53.4022C56.9769 53.2751 56.9071 53.1058 56.9071 52.9253C56.9071 52.7448 56.9773 52.5755 57.1043 52.4485L59.4839 50.07C60.5074 49.045 60.507 47.3784 59.4832 46.3545L58.4441 45.3154C58.1816 45.0526 58.1816 44.6253 58.4441 44.3625L62.1378 40.668ZM34.4843 37.4087L28.8336 29.5042C28.0898 28.044 27.9375 26.3129 28.4159 24.7549C29.2262 22.1163 31.7217 20.2734 34.4847 20.2734C37.9847 20.2734 40.8324 23.1211 40.8324 26.6211C40.8324 27.7415 40.499 28.8412 39.7833 30.0814C39.2302 31.0397 34.4843 37.4087 34.4843 37.4087ZM38.6699 26.4172C38.6699 24.1108 36.7939 22.2344 34.4875 22.2344C32.1811 22.2344 30.3047 24.1108 30.3047 26.4172C30.3047 28.7236 32.1811 30.5996 34.4875 30.5996C36.7939 30.5996 38.6699 28.7236 38.6699 26.4172ZM34.4875 28.6465C33.258 28.6465 32.2578 27.6463 32.2578 26.4172C32.2578 25.1881 33.258 24.1875 34.4875 24.1875C35.717 24.1875 36.7168 25.1877 36.7168 26.4172C36.7168 27.6467 35.717 28.6465 34.4875 28.6465ZM31.8035 47.3718H31.8092C32.0717 47.3718 32.3231 47.2661 32.5069 47.0784L33.9649 45.5895C34.3422 45.2043 34.3357 44.5859 33.95 44.2086C33.5643 43.8313 32.9464 43.8378 32.5691 44.2231L31.8168 44.9914L31.0882 44.2308C30.7152 43.8413 30.0968 43.8279 29.7073 44.201C29.3178 44.5741 29.3045 45.1921 29.6776 45.5815L31.1039 47.0708C31.2866 47.2619 31.5391 47.3702 31.8035 47.3718ZM42.7762 53.2315H42.7815C43.0439 53.2315 43.2957 53.1255 43.4796 52.9382L44.9376 51.4489C45.3148 51.0636 45.3084 50.4453 44.9227 50.068C44.537 49.6907 43.9194 49.6972 43.5418 50.0825L42.7895 50.8512L42.0605 50.0901C41.6874 49.7006 41.0695 49.6873 40.68 50.0604C40.2905 50.4335 40.2771 51.0518 40.6502 51.4413L42.0762 52.9302C42.2593 53.1213 42.5118 53.23 42.7762 53.2315ZM49.9006 49.4595C50.0833 49.6506 50.3359 49.7593 50.6006 49.7604H50.606C50.8684 49.7604 51.1198 49.6548 51.3037 49.4671L52.7616 47.9782C53.1389 47.5925 53.1324 46.9746 52.7471 46.5973C52.3618 46.22 51.7435 46.2265 51.3662 46.6118L50.6136 47.3801L49.885 46.6194C49.5119 46.2299 48.8935 46.2166 48.5041 46.5897C48.1147 46.9628 48.1012 47.5807 48.4743 47.9702L49.9006 49.4595ZM19.3959 48.6243C19.1914 48.1333 18.6127 47.8922 18.1206 48.0959C17.6285 48.2996 17.3882 48.8799 17.5923 49.3716C17.7964 49.8633 18.3758 50.104 18.8676 49.8995C19.3594 49.695 19.6007 49.1156 19.3959 48.6243Z" fill="#A237EE"/>
</g>
</g>
<defs>
<clipPath id="clip0_125_2678">
<rect width="80" height="80" fill="white"/>
</clipPath>
</defs>
</svg>
